{
 "compressionlevel": -1,
 "infinite": false,
 "width": 112,
 "height": 72,
 "tilewidth": 32,
 "tileheight": 32,
 "orientation": "orthogonal",
 "renderorder": "right-down",
 "type": "map",
 "version": "1.10",
 "tiledversion": "1.10.2",
 "nextlayerid": 3,
 "nextobjectid": 6,
 "tilesets": [
  {
   "firstgid": 1,
   "name": "lighthouse",
   "tilewidth": 32,
   "tileheight": 32,
   "tilecount": 8,
   "columns": 8,
   "margin": 0,
   "spacing": 0,
   "image": "lighthouse-tiles.png",
   "imagewidth": 256,
   "imageheight": 32
  }
 ],
 "layers": [
  {
   "id": 1,
   "name": "suelo",
   "type": "tilelayer",
   "visible": true,
   "opacity": 1,
   "x": 0,
   "y": 0,
   "width": 112,
   "height": 72,
   "data": [
    1,
    1,
    1,
    1,
    1,
    1,
    1,
    1,
    1,
    1,
    1,
    1,
    1,
    1,
    1,
    1,
    1,
    1,
    1,
    1,
    1,
    1,
    1,
    1,
    1,
    1,
    1,
    1,
    1,
    1,
    1,
    1,
    1,
    1,
    1,
    1,
    1,
    1,
    1,
    1,
    1,
    1,
    1,
    1,
    1,
    1,
    1,
    1,
    1,
    1,
    1,
    1,
    1,
    1,
    1,
    1,
    1,
    1,
    1,
    1,
    1,
    1,
    1,
    1,
    1,
    1,
    1,
    1,
    1,
    1,
    1,
    1,
    1,
    1,
    1,
    1,
    1,
    1,
    1,
    1,
    8,
    8,
    8,
    1,
    1,
    1,
    1,
    1,
    1,
    1,
    1,
    1,
    1,
    1,
    1,
    1,
    1,
    1,
    1,
    1,
    1,
    1,
    1,
    1,
    1,
    1,
    1,
    1,
    1,
    1,
    1,
    1,
    1,
    1,
    1,
    1,
    1,
    1,
    1,
    1,
    1,
    1,
    1,
    1,
    1,
    1,
    1,
    1,
    1,
    1,
    1,
    1,
    1,
    1,
    1,
    1,
    1,
    2,
    2,
    2,
    1,
    1,
    1,
    1,
    1,
    1,
    1,
    1,
    1,
    1,
    1,
    1,
    1,
    1,
    2,
    2,
    2,
    2,
    1,
    1,
    1,
    1,
    1,
    1,
    2,
    2,
    2,
    2,
    1,
    1,
    1,
    1,
    1,
    1,
    1,
    1,
    1,
    1,
    1,
    1,
    1,
    1,
    1,
    1,
    1,
    1,
    1,
    1,
    1,
    1,
    1,
    1,
    2,
    2,
    2,
    2,
    1,
    1,
    1,
    1,
    1,
    1,
    1,
    1,
    1,
    1,
    1,
    1,
    1,
    1,
    1,
    1,
    1,
    1,
    1,
    1,
    1,
    1,
    1,
    1,
    1,
    1,
    1,
    1,
    1,
    1,
    6,
    6,
    6,
    6,
    6,
    6,
    6,
    6,
    6,
    6,
    6,
    6,
    6,
    6,
    6,
    6,
    6,
    6,
    6,
    6,
    6,
    6,
    1,
    2,
    2,
    2,
    1,
    6,
    6,
    6,
    6,
    6,
    6,
    6,
    6,
    6,
    6,
    6,
    6,
    1,
    2,
    2,
    2,
    2,
    1,
    5,
    5,
    5,
    5,
    1,
    2,
    2,
    2,
    2,
    1,
    4,
    4,
    4,
    4,
    4,
    4,
    4,
    4,
    4,
    4,
    4,
    4,
    4,
    4,
    4,
    4,
    4,
    4,
    4,
    4,
    4,
    4,
    1,
    2,
    2,
    2,
    2,
    1,
    3,
    3,
    3,
    3,
    3,
    3,
    3,
    3,
    3,
    3,
    3,
    3,
    3,
    3,
    3,
    3,
    3,
    3,
    3,
    3,
    3,
    3,
    3,
    3,
    3,
    1,
    1,
    1,
    1,
    6,
    6,
    6,
    6,
    6,
    6,
    6,
    6,
    6,
    6,
    6,
    6,
    6,
    6,
    6,
    6,
    6,
    6,
    6,
    6,
    6,
    6,
    1,
    2,
    2,
    2,
    1,
    6,
    6,
    6,
    6,
    6,
    6,
    6,
    6,
    6,
    6,
    6,
    6,
    1,
    2,
    2,
    2,
    2,
    1,
    5,
    5,
    5,
    5,
    1,
    2,
    2,
    2,
    2,
    1,
    4,
    4,
    4,
    4,
    4,
    4,
    4,
    4,
    4,
    4,
    4,
    4,
    4,
    4,
    4,
    4,
    4,
    4,
    4,
    4,
    4,
    4,
    1,
    2,
    2,
    2,
    2,
    1,
    3,
    3,
    3,
    3,
    3,
    3,
    3,
    3,
    3,
    3,
    3,
    3,
    3,
    3,
    3,
    3,
    3,
    3,
    3,
    3,
    3,
    3,
    3,
    3,
    3,
    1,
    1,
    1,
    1,
    6,
    6,
    6,
    6,
    6,
    6,
    6,
    6,
    6,
    6,
    6,
    6,
    6,
    6,
    6,
    6,
    6,
    6,
    6,
    6,
    6,
    6,
    1,
    2,
    2,
    2,
    1,
    6,
    6,
    6,
    6,
    6,
    6,
    6,
    6,
    6,
    6,
    6,
    6,
    1,
    2,
    2,
    2,
    2,
    1,
    5,
    5,
    5,
    5,
    1,
    2,
    2,
    2,
    2,
    1,
    4,
    4,
    4,
    4,
    4,
    4,
    4,
    4,
    4,
    4,
    4,
    4,
    4,
    4,
    4,
    4,
    4,
    4,
    4,
    4,
    4,
    4,
    1,
    2,
    2,
    2,
    2,
    1,
    3,
    3,
    1,
    1,
    1,
    1,
    1,
    1,
    1,
    1,
    1,
    1,
    1,
    1,
    1,
    1,
    1,
    1,
    1,
    1,
    1,
    1,
    1,
    3,
    3,
    1,
    1,
    1,
    1,
    6,
    6,
    6,
    6,
    6,
    6,
    6,
    6,
    6,
    6,
    6,
    6,
    6,
    6,
    6,
    6,
    6,
    6,
    6,
    6,
    6,
    6,
    1,
    2,
    2,
    2,
    1,
    6,
    6,
    6,
    6,
    6,
    6,
    6,
    6,
    6,
    6,
    6,
    6,
    1,
    2,
    2,
    2,
    2,
    2,
    5,
    5,
    5,
    5,
    1,
    2,
    2,
    2,
    2,
    1,
    4,
    4,
    4,
    4,
    1,
    1,
    1,
    1,
    1,
    1,
    1,
    1,
    1,
    1,
    1,
    1,
    1,
    1,
    1,
    1,
    1,
    4,
    1,
    2,
    2,
    2,
    2,
    1,
    3,
    3,
    3,
    3,
    3,
    3,
    3,
    3,
    3,
    3,
    3,
    3,
    3,
    3,
    3,
    3,
    3,
    3,
    3,
    3,
    3,
    3,
    3,
    3,
    3,
    1,
    1,
    1,
    1,
    6,
    6,
    6,
    6,
    6,
    6,
    6,
    6,
    6,
    6,
    6,
    6,
    6,
    6,
    6,
    6,
    6,
    6,
    6,
    6,
    6,
    6,
    1,
    2,
    2,
    2,
    1,
    6,
    6,
    6,
    6,
    6,
    6,
    6,
    6,
    6,
    6,
    6,
    6,
    1,
    2,
    2,
    2,
    2,
    2,
    5,
    5,
    5,
    5,
    1,
    2,
    2,
    2,
    2,
    1,
    4,
    4,
    4,
    4,
    4,
    4,
    4,
    4,
    4,
    4,
    4,
    4,
    4,
    4,
    4,
    4,
    4,
    4,
    4,
    4,
    4,
    4,
    1,
    2,
    2,
    2,
    2,
    1,
    3,
    3,
    3,
    3,
    3,
    3,
    3,
    3,
    3,
    3,
    3,
    3,
    3,
    3,
    3,
    3,
    3,
    3,
    3,
    3,
    3,
    3,
    3,
    3,
    3,
    1,
    1,
    1,
    1,
    6,
    6,
    6,
    6,
    6,
    6,
    6,
    6,
    6,
    6,
    6,
    6,
    6,
    6,
    6,
    6,
    1,
    1,
    6,
    6,
    6,
    6,
    1,
    2,
    2,
    2,
    1,
    6,
    6,
    6,
    6,
    6,
    6,
    6,
    6,
    6,
    6,
    6,
    6,
    1,
    2,
    2,
    2,
    2,
    1,
    5,
    5,
    5,
    5,
    1,
    2,
    2,
    2,
    2,
    1,
    4,
    4,
    4,
    4,
    4,
    4,
    4,
    4,
    4,
    4,
    4,
    4,
    4,
    4,
    4,
    4,
    4,
    4,
    4,
    4,
    4,
    4,
    1,
    2,
    2,
    2,
    2,
    1,
    3,
    3,
    1,
    1,
    1,
    1,
    1,
    1,
    1,
    1,
    1,
    1,
    1,
    1,
    1,
    1,
    1,
    1,
    1,
    1,
    1,
    1,
    1,
    3,
    3,
    1,
    1,
    1,
    1,
    6,
    6,
    6,
    6,
    6,
    6,
    6,
    6,
    6,
    6,
    6,
    6,
    6,
    6,
    6,
    6,
    1,
    1,
    6,
    6,
    6,
    6,
    1,
    2,
    2,
    2,
    1,
    6,
    6,
    6,
    1,
    1,
    6,
    6,
    6,
    6,
    6,
    6,
    6,
    1,
    2,
    2,
    2,
    2,
    1,
    5,
    5,
    5,
    5,
    1,
    2,
    2,
    2,
    2,
    1,
    4,
    4,
    4,
    4,
    4,
    4,
    4,
    4,
    4,
    4,
    4,
    4,
    4,
    4,
    4,
    4,
    4,
    4,
    4,
    4,
    4,
    4,
    1,
    2,
    2,
    2,
    2,
    1,
    3,
    3,
    3,
    3,
    3,
    3,
    3,
    3,
    3,
    3,
    3,
    3,
    3,
    3,
    3,
    3,
    3,
    3,
    3,
    3,
    3,
    3,
    3,
    3,
    3,
    1,
    1,
    1,
    1,
    6,
    6,
    6,
    6,
    6,
    6,
    6,
    6,
    6,
    6,
    6,
    6,
    6,
    6,
    6,
    6,
    1,
    1,
    6,
    6,
    6,
    6,
    1,
    2,
    2,
    2,
    1,
    6,
    6,
    6,
    1,
    1,
    6,
    6,
    6,
    6,
    6,
    6,
    6,
    1,
    2,
    2,
    2,
    2,
    1,
    5,
    5,
    5,
    5,
    1,
    2,
    2,
    2,
    2,
    1,
    4,
    1,
    1,
    1,
    1,
    1,
    1,
    1,
    1,
    1,
    1,
    1,
    1,
    1,
    1,
    1,
    1,
    1,
    4,
    4,
    4,
    4,
    1,
    2,
    2,
    2,
    2,
    1,
    3,
    3,
    3,
    3,
    3,
    3,
    3,
    3,
    3,
    3,
    3,
    3,
    3,
    3,
    3,
    3,
    3,
    3,
    3,
    3,
    3,
    3,
    3,
    3,
    3,
    1,
    1,
    1,
    1,
    6,
    6,
    6,
    6,
    6,
    6,
    6,
    6,
    6,
    6,
    1,
    1,
    6,
    6,
    6,
    6,
    6,
    6,
    6,
    6,
    6,
    6,
    1,
    2,
    2,
    2,
    1,
    6,
    6,
    6,
    1,
    1,
    1,
    1,
    6,
    6,
    6,
    6,
    6,
    1,
    2,
    2,
    2,
    2,
    1,
    5,
    5,
    5,
    5,
    1,
    2,
    2,
    2,
    2,
    1,
    4,
    4,
    4,
    4,
    4,
    4,
    4,
    4,
    4,
    4,
    4,
    4,
    4,
    4,
    4,
    4,
    4,
    4,
    4,
    4,
    4,
    4,
    1,
    2,
    2,
    2,
    2,
    1,
    3,
    3,
    1,
    1,
    1,
    1,
    1,
    1,
    1,
    1,
    1,
    1,
    1,
    1,
    1,
    1,
    1,
    1,
    1,
    1,
    1,
    1,
    1,
    3,
    3,
    1,
    1,
    1,
    1,
    6,
    6,
    6,
    6,
    6,
    6,
    6,
    6,
    6,
    6,
    1,
    1,
    6,
    6,
    6,
    6,
    6,
    6,
    6,
    6,
    6,
    6,
    1,
    2,
    2,
    2,
    1,
    6,
    6,
    6,
    1,
    1,
    1,
    1,
    6,
    6,
    6,
    6,
    6,
    1,
    2,
    2,
    2,
    2,
    1,
    5,
    5,
    5,
    5,
    1,
    2,
    2,
    2,
    2,
    1,
    4,
    4,
    4,
    4,
    4,
    4,
    4,
    4,
    4,
    4,
    4,
    4,
    4,
    4,
    4,
    4,
    4,
    4,
    4,
    4,
    4,
    4,
    1,
    2,
    2,
    2,
    2,
    2,
    3,
    3,
    3,
    3,
    3,
    3,
    3,
    3,
    3,
    3,
    3,
    3,
    3,
    3,
    3,
    3,
    3,
    3,
    3,
    3,
    3,
    3,
    3,
    3,
    3,
    1,
    1,
    1,
    1,
    6,
    6,
    6,
    6,
    6,
    6,
    6,
    6,
    6,
    6,
    1,
    1,
    6,
    6,
    6,
    6,
    6,
    6,
    6,
    6,
    6,
    6,
    1,
    2,
    2,
    2,
    1,
    6,
    6,
    6,
    1,
    1,
    1,
    1,
    6,
    6,
    6,
    6,
    6,
    1,
    2,
    2,
    2,
    2,
    1,
    5,
    5,
    5,
    5,
    1,
    2,
    2,
    2,
    2,
    1,
    4,
    4,
    4,
    4,
    4,
    4,
    4,
    4,
    4,
    4,
    4,
    4,
    4,
    4,
    4,
    4,
    4,
    4,
    4,
    4,
    4,
    4,
    1,
    2,
    2,
    2,
    2,
    2,
    3,
    3,
    3,
    3,
    3,
    3,
    3,
    3,
    3,
    3,
    3,
    3,
    3,
    3,
    3,
    3,
    3,
    3,
    3,
    3,
    3,
    3,
    3,
    3,
    3,
    1,
    1,
    1,
    1,
    6,
    6,
    6,
    6,
    6,
    6,
    6,
    6,
    6,
    6,
    6,
    6,
    6,
    6,
    6,
    6,
    6,
    6,
    6,
    6,
    6,
    6,
    1,
    2,
    2,
    2,
    1,
    6,
    6,
    6,
    6,
    6,
    6,
    6,
    6,
    6,
    6,
    6,
    6,
    1,
    2,
    2,
    2,
    2,
    1,
    5,
    5,
    5,
    5,
    1,
    2,
    2,
    2,
    2,
    1,
    4,
    4,
    4,
    4,
    1,
    1,
    1,
    1,
    1,
    1,
    1,
    1,
    1,
    1,
    1,
    1,
    1,
    1,
    1,
    1,
    1,
    4,
    1,
    2,
    2,
    2,
    2,
    1,
    3,
    3,
    1,
    1,
    1,
    1,
    1,
    1,
    1,
    1,
    1,
    1,
    1,
    1,
    1,
    1,
    1,
    1,
    1,
    1,
    1,
    1,
    1,
    3,
    3,
    1,
    1,
    1,
    1,
    6,
    6,
    6,
    6,
    6,
    6,
    6,
    6,
    6,
    6,
    6,
    6,
    6,
    6,
    6,
    6,
    6,
    6,
    1,
    1,
    6,
    6,
    1,
    2,
    2,
    2,
    1,
    6,
    6,
    6,
    6,
    6,
    6,
    6,
    6,
    6,
    6,
    6,
    6,
    1,
    2,
    2,
    2,
    2,
    1,
    5,
    5,
    5,
    5,
    1,
    2,
    2,
    2,
    2,
    1,
    4,
    4,
    4,
    4,
    4,
    4,
    4,
    4,
    4,
    4,
    4,
    4,
    4,
    4,
    4,
    4,
    4,
    4,
    4,
    4,
    4,
    4,
    1,
    2,
    2,
    2,
    2,
    1,
    3,
    3,
    3,
    3,
    3,
    3,
    3,
    3,
    3,
    3,
    3,
    3,
    3,
    3,
    3,
    3,
    3,
    3,
    3,
    3,
    3,
    3,
    3,
    3,
    3,
    1,
    1,
    1,
    1,
    6,
    6,
    6,
    6,
    6,
    6,
    6,
    6,
    6,
    6,
    6,
    6,
    6,
    6,
    6,
    6,
    6,
    6,
    1,
    1,
    6,
    6,
    1,
    2,
    2,
    2,
    1,
    6,
    6,
    6,
    6,
    6,
    6,
    6,
    6,
    6,
    6,
    6,
    6,
    1,
    2,
    2,
    2,
    2,
    1,
    5,
    5,
    5,
    5,
    1,
    2,
    2,
    2,
    2,
    1,
    4,
    4,
    4,
    4,
    4,
    4,
    4,
    4,
    4,
    4,
    4,
    4,
    4,
    4,
    4,
    4,
    4,
    4,
    4,
    4,
    4,
    4,
    1,
    2,
    2,
    2,
    2,
    1,
    3,
    3,
    3,
    3,
    3,
    3,
    3,
    3,
    3,
    3,
    3,
    3,
    3,
    3,
    3,
    3,
    3,
    3,
    3,
    3,
    3,
    3,
    3,
    3,
    3,
    1,
    1,
    1,
    1,
    6,
    6,
    6,
    6,
    6,
    6,
    6,
    6,
    6,
    6,
    6,
    6,
    6,
    6,
    6,
    6,
    6,
    6,
    6,
    6,
    6,
    6,
    1,
    2,
    2,
    2,
    1,
    6,
    6,
    6,
    6,
    6,
    6,
    6,
    6,
    6,
    6,
    6,
    6,
    1,
    2,
    2,
    2,
    2,
    1,
    5,
    5,
    5,
    5,
    1,
    2,
    2,
    2,
    2,
    1,
    4,
    4,
    4,
    4,
    4,
    4,
    4,
    4,
    4,
    4,
    4,
    4,
    4,
    4,
    4,
    4,
    4,
    4,
    4,
    4,
    4,
    4,
    1,
    2,
    2,
    2,
    2,
    1,
    3,
    3,
    1,
    1,
    1,
    1,
    1,
    1,
    1,
    1,
    1,
    1,
    1,
    1,
    1,
    1,
    1,
    1,
    1,
    1,
    1,
    1,
    1,
    3,
    3,
    1,
    1,
    1,
    1,
    6,
    6,
    6,
    6,
    6,
    6,
    6,
    6,
    6,
    6,
    6,
    6,
    6,
    6,
    6,
    6,
    6,
    6,
    6,
    6,
    6,
    6,
    2,
    2,
    2,
    2,
    1,
    1,
    1,
    1,
    1,
    1,
    1,
    1,
    1,
    1,
    1,
    2,
    2,
    1,
    2,
    2,
    2,
    2,
    1,
    1,
    1,
    1,
    1,
    1,
    2,
    2,
    2,
    2,
    1,
    4,
    1,
    1,
    1,
    1,
    1,
    1,
    1,
    1,
    1,
    1,
    1,
    1,
    1,
    1,
    1,
    1,
    1,
    4,
    4,
    4,
    4,
    1,
    2,
    2,
    2,
    2,
    1,
    3,
    3,
    3,
    3,
    3,
    3,
    3,
    3,
    3,
    3,
    3,
    3,
    3,
    3,
    3,
    3,
    3,
    3,
    3,
    3,
    3,
    3,
    3,
    3,
    3,
    1,
    1,
    1,
    1,
    6,
    6,
    6,
    6,
    6,
    6,
    6,
    6,
    6,
    6,
    6,
    6,
    6,
    6,
    6,
    6,
    6,
    6,
    6,
    6,
    6,
    6,
    2,
    2,
    2,
    2,
    2,
    2,
    2,
    2,
    2,
    2,
    2,
    2,
    2,
    2,
    2,
    2,
    2,
    2,
    2,
    2,
    2,
    2,
    2,
    2,
    2,
    2,
    2,
    2,
    2,
    2,
    2,
    2,
    1,
    4,
    4,
    4,
    4,
    4,
    4,
    4,
    4,
    4,
    4,
    4,
    4,
    4,
    4,
    4,
    4,
    4,
    4,
    4,
    4,
    4,
    4,
    1,
    2,
    2,
    2,
    2,
    1,
    3,
    3,
    3,
    3,
    3,
    3,
    3,
    3,
    3,
    3,
    3,
    3,
    3,
    3,
    3,
    3,
    3,
    3,
    3,
    3,
    3,
    3,
    3,
    3,
    3,
    1,
    1,
    1,
    1,
    6,
    6,
    6,
    6,
    6,
    6,
    6,
    6,
    6,
    6,
    6,
    6,
    6,
    6,
    6,
    6,
    6,
    6,
    6,
    6,
    6,
    6,
    1,
    2,
    2,
    2,
    2,
    2,
    2,
    2,
    2,
    2,
    2,
    2,
    2,
    2,
    2,
    2,
    2,
    2,
    2,
    2,
    2,
    2,
    2,
    2,
    2,
    2,
    2,
    2,
    2,
    2,
    2,
    2,
    1,
    4,
    4,
    4,
    4,
    4,
    4,
    4,
    4,
    4,
    4,
    4,
    4,
    4,
    4,
    4,
    4,
    4,
    4,
    4,
    4,
    4,
    4,
    1,
    2,
    2,
    2,
    2,
    1,
    3,
    3,
    1,
    1,
    1,
    1,
    1,
    1,
    1,
    1,
    1,
    1,
    1,
    1,
    1,
    1,
    1,
    1,
    1,
    1,
    1,
    1,
    1,
    3,
    3,
    1,
    1,
    1,
    1,
    6,
    6,
    6,
    6,
    6,
    6,
    6,
    6,
    6,
    6,
    6,
    6,
    6,
    6,
    6,
    6,
    6,
    6,
    6,
    6,
    6,
    6,
    1,
    2,
    2,
    2,
    2,
    2,
    2,
    2,
    2,
    2,
    2,
    2,
    2,
    2,
    2,
    2,
    2,
    2,
    2,
    2,
    2,
    2,
    2,
    2,
    2,
    2,
    2,
    2,
    2,
    2,
    2,
    2,
    2,
    4,
    4,
    4,
    4,
    4,
    4,
    4,
    4,
    4,
    4,
    4,
    4,
    4,
    4,
    4,
    4,
    4,
    4,
    4,
    4,
    4,
    4,
    1,
    2,
    2,
    2,
    2,
    1,
    3,
    3,
    3,
    3,
    3,
    3,
    3,
    3,
    3,
    3,
    3,
    3,
    3,
    3,
    3,
    3,
    3,
    3,
    3,
    3,
    3,
    3,
    3,
    3,
    3,
    1,
    1,
    1,
    1,
    6,
    6,
    6,
    6,
    6,
    6,
    6,
    6,
    6,
    6,
    6,
    6,
    6,
    6,
    6,
    6,
    6,
    6,
    6,
    6,
    6,
    6,
    1,
    2,
    2,
    2,
    1,
    1,
    1,
    1,
    1,
    1,
    1,
    1,
    1,
    1,
    1,
    1,
    2,
    2,
    2,
    1,
    1,
    1,
    1,
    1,
    1,
    1,
    1,
    1,
    2,
    2,
    2,
    2,
    2,
    4,
    4,
    4,
    4,
    1,
    1,
    1,
    1,
    1,
    1,
    1,
    1,
    1,
    1,
    1,
    1,
    1,
    1,
    1,
    1,
    1,
    4,
    1,
    2,
    2,
    2,
    2,
    1,
    3,
    3,
    3,
    3,
    3,
    3,
    3,
    3,
    3,
    3,
    3,
    3,
    3,
    3,
    3,
    3,
    3,
    3,
    3,
    3,
    3,
    3,
    3,
    3,
    3,
    1,
    1,
    1,
    1,
    6,
    6,
    6,
    6,
    6,
    6,
    6,
    6,
    6,
    6,
    6,
    6,
    6,
    6,
    6,
    6,
    6,
    6,
    6,
    6,
    6,
    6,
    1,
    2,
    2,
    2,
    1,
    6,
    6,
    6,
    6,
    6,
    6,
    6,
    6,
    6,
    6,
    1,
    2,
    2,
    2,
    1,
    7,
    7,
    7,
    7,
    7,
    7,
    7,
    1,
    2,
    2,
    2,
    2,
    1,
    4,
    4,
    4,
    4,
    4,
    4,
    4,
    4,
    4,
    4,
    4,
    4,
    4,
    4,
    4,
    4,
    4,
    4,
    4,
    4,
    4,
    4,
    1,
    2,
    2,
    2,
    2,
    1,
    3,
    3,
    3,
    3,
    3,
    3,
    3,
    3,
    3,
    3,
    3,
    3,
    3,
    3,
    3,
    3,
    3,
    3,
    3,
    3,
    3,
    3,
    3,
    3,
    3,
    1,
    1,
    1,
    1,
    6,
    6,
    6,
    6,
    6,
    6,
    6,
    6,
    6,
    6,
    6,
    6,
    6,
    6,
    6,
    6,
    6,
    6,
    6,
    6,
    6,
    6,
    1,
    2,
    2,
    2,
    1,
    6,
    6,
    6,
    6,
    6,
    6,
    6,
    6,
    6,
    6,
    1,
    2,
    2,
    2,
    1,
    7,
    7,
    7,
    7,
    7,
    7,
    7,
    1,
    2,
    2,
    2,
    2,
    1,
    4,
    4,
    4,
    4,
    4,
    4,
    4,
    4,
    4,
    4,
    4,
    4,
    4,
    4,
    4,
    4,
    4,
    4,
    4,
    4,
    4,
    4,
    1,
    2,
    2,
    2,
    2,
    1,
    1,
    1,
    1,
    1,
    1,
    1,
    1,
    1,
    1,
    1,
    1,
    1,
    1,
    1,
    1,
    1,
    1,
    1,
    1,
    1,
    1,
    2,
    2,
    1,
    1,
    1,
    8,
    8,
    1,
    1,
    1,
    2,
    2,
    1,
    1,
    1,
    1,
    1,
    1,
    1,
    1,
    1,
    1,
    1,
    1,
    1,
    1,
    1,
    1,
    1,
    1,
    1,
    2,
    2,
    2,
    1,
    6,
    6,
    6,
    1,
    1,
    1,
    6,
    6,
    6,
    6,
    1,
    2,
    2,
    2,
    1,
    7,
    7,
    7,
    7,
    7,
    7,
    7,
    1,
    2,
    2,
    2,
    2,
    1,
    4,
    4,
    4,
    4,
    4,
    4,
    4,
    4,
    4,
    4,
    4,
    4,
    4,
    4,
    4,
    4,
    4,
    4,
    4,
    4,
    4,
    4,
    1,
    2,
    2,
    2,
    2,
    2,
    2,
    2,
    2,
    2,
    2,
    2,
    2,
    2,
    2,
    2,
    2,
    2,
    2,
    2,
    2,
    2,
    2,
    2,
    2,
    2,
    2,
    2,
    2,
    2,
    2,
    2,
    8,
    8,
    2,
    2,
    2,
    2,
    2,
    2,
    2,
    2,
    2,
    2,
    2,
    2,
    2,
    2,
    2,
    2,
    2,
    2,
    2,
    2,
    2,
    2,
    2,
    2,
    2,
    2,
    2,
    1,
    6,
    6,
    6,
    1,
    1,
    1,
    6,
    6,
    6,
    6,
    1,
    2,
    2,
    2,
    1,
    7,
    7,
    7,
    7,
    7,
    7,
    7,
    1,
    2,
    2,
    2,
    2,
    1,
    4,
    1,
    1,
    1,
    1,
    1,
    1,
    1,
    1,
    1,
    1,
    1,
    1,
    1,
    1,
    1,
    1,
    1,
    4,
    4,
    4,
    4,
    1,
    2,
    2,
    2,
    2,
    2,
    2,
    2,
    2,
    2,
    2,
    2,
    2,
    2,
    2,
    2,
    2,
    2,
    2,
    2,
    2,
    2,
    2,
    2,
    2,
    2,
    2,
    2,
    2,
    2,
    2,
    2,
    8,
    8,
    2,
    2,
    2,
    2,
    2,
    2,
    2,
    2,
    2,
    2,
    2,
    2,
    2,
    2,
    2,
    2,
    2,
    2,
    2,
    2,
    2,
    2,
    2,
    2,
    2,
    2,
    2,
    1,
    6,
    6,
    6,
    1,
    1,
    1,
    6,
    6,
    6,
    6,
    1,
    2,
    2,
    2,
    1,
    7,
    7,
    7,
    7,
    7,
    7,
    7,
    1,
    2,
    2,
    2,
    2,
    1,
    4,
    4,
    4,
    4,
    4,
    4,
    4,
    4,
    4,
    4,
    4,
    4,
    4,
    4,
    4,
    4,
    4,
    4,
    4,
    4,
    4,
    4,
    1,
    2,
    2,
    2,
    2,
    2,
    2,
    2,
    2,
    2,
    2,
    2,
    2,
    2,
    2,
    2,
    2,
    2,
    2,
    2,
    2,
    2,
    2,
    2,
    2,
    2,
    2,
    2,
    2,
    2,
    2,
    2,
    1,
    1,
    2,
    2,
    2,
    2,
    2,
    2,
    2,
    2,
    2,
    2,
    2,
    2,
    2,
    2,
    2,
    2,
    2,
    2,
    2,
    2,
    2,
    2,
    2,
    2,
    2,
    2,
    2,
    1,
    6,
    6,
    6,
    6,
    6,
    6,
    6,
    6,
    6,
    6,
    1,
    2,
    2,
    2,
    1,
    7,
    7,
    7,
    7,
    7,
    7,
    7,
    1,
    2,
    2,
    2,
    2,
    1,
    4,
    4,
    4,
    4,
    4,
    4,
    4,
    4,
    4,
    4,
    4,
    4,
    4,
    4,
    4,
    4,
    4,
    4,
    4,
    4,
    4,
    4,
    1,
    2,
    2,
    2,
    2,
    1,
    1,
    1,
    1,
    1,
    1,
    1,
    1,
    1,
    1,
    1,
    1,
    1,
    1,
    1,
    1,
    2,
    2,
    2,
    2,
    1,
    1,
    1,
    1,
    1,
    1,
    1,
    1,
    1,
    1,
    1,
    1,
    1,
    1,
    1,
    1,
    1,
    1,
    1,
    1,
    1,
    1,
    1,
    2,
    2,
    2,
    1,
    1,
    1,
    1,
    1,
    1,
    1,
    2,
    2,
    2,
    1,
    6,
    6,
    6,
    6,
    6,
    6,
    6,
    6,
    6,
    6,
    1,
    2,
    2,
    2,
    1,
    7,
    7,
    7,
    7,
    7,
    7,
    7,
    1,
    2,
    2,
    2,
    2,
    1,
    4,
    4,
    4,
    4,
    4,
    4,
    4,
    4,
    4,
    4,
    4,
    4,
    4,
    4,
    4,
    4,
    4,
    4,
    4,
    4,
    4,
    4,
    1,
    2,
    2,
    2,
    2,
    1,
    6,
    6,
    6,
    6,
    6,
    6,
    6,
    6,
    6,
    6,
    6,
    6,
    6,
    6,
    1,
    2,
    2,
    2,
    2,
    1,
    5,
    5,
    5,
    5,
    5,
    1,
    1,
    1,
    1,
    6,
    6,
    6,
    6,
    6,
    6,
    6,
    6,
    6,
    6,
    6,
    6,
    1,
    2,
    2,
    2,
    1,
    5,
    5,
    5,
    5,
    5,
    1,
    2,
    2,
    2,
    1,
    6,
    6,
    6,
    6,
    6,
    6,
    6,
    6,
    6,
    6,
    1,
    2,
    2,
    2,
    1,
    7,
    7,
    7,
    7,
    7,
    7,
    7,
    1,
    2,
    2,
    2,
    2,
    1,
    4,
    4,
    4,
    4,
    1,
    1,
    1,
    1,
    1,
    1,
    1,
    1,
    1,
    1,
    1,
    1,
    1,
    1,
    1,
    1,
    1,
    4,
    2,
    2,
    2,
    2,
    2,
    1,
    6,
    6,
    6,
    6,
    6,
    6,
    6,
    6,
    6,
    6,
    6,
    6,
    6,
    6,
    2,
    2,
    2,
    2,
    2,
    1,
    5,
    5,
    5,
    5,
    5,
    1,
    1,
    1,
    1,
    6,
    6,
    6,
    6,
    6,
    6,
    6,
    6,
    6,
    6,
    6,
    6,
    1,
    2,
    2,
    2,
    1,
    5,
    5,
    5,
    5,
    5,
    1,
    2,
    2,
    2,
    1,
    6,
    6,
    6,
    6,
    6,
    6,
    6,
    6,
    6,
    6,
    1,
    2,
    2,
    2,
    1,
    7,
    7,
    7,
    7,
    7,
    7,
    7,
    1,
    2,
    2,
    2,
    2,
    1,
    4,
    4,
    4,
    4,
    4,
    4,
    4,
    4,
    4,
    4,
    4,
    4,
    4,
    4,
    4,
    4,
    4,
    4,
    4,
    4,
    4,
    4,
    2,
    2,
    2,
    2,
    2,
    1,
    6,
    6,
    6,
    6,
    6,
    6,
    1,
    1,
    6,
    6,
    6,
    6,
    6,
    6,
    2,
    2,
    2,
    2,
    2,
    1,
    5,
    5,
    5,
    5,
    5,
    1,
    1,
    1,
    1,
    6,
    6,
    6,
    6,
    6,
    6,
    6,
    6,
    6,
    6,
    6,
    6,
    1,
    2,
    2,
    2,
    1,
    5,
    5,
    5,
    5,
    5,
    1,
    2,
    2,
    2,
    1,
    6,
    6,
    6,
    6,
    6,
    6,
    6,
    6,
    6,
    6,
    1,
    2,
    2,
    2,
    1,
    7,
    7,
    7,
    7,
    7,
    7,
    7,
    1,
    2,
    2,
    2,
    2,
    1,
    4,
    4,
    4,
    4,
    4,
    4,
    4,
    4,
    4,
    4,
    4,
    4,
    4,
    4,
    4,
    4,
    4,
    4,
    4,
    4,
    4,
    4,
    1,
    2,
    2,
    2,
    2,
    1,
    6,
    6,
    6,
    6,
    6,
    1,
    1,
    1,
    6,
    6,
    6,
    6,
    6,
    6,
    1,
    2,
    2,
    2,
    2,
    1,
    5,
    5,
    5,
    5,
    5,
    1,
    1,
    1,
    1,
    6,
    6,
    6,
    6,
    6,
    6,
    6,
    6,
    6,
    6,
    6,
    6,
    1,
    2,
    2,
    2,
    1,
    5,
    5,
    5,
    5,
    5,
    1,
    2,
    2,
    2,
    1,
    6,
    6,
    6,
    6,
    6,
    6,
    6,
    6,
    6,
    6,
    1,
    2,
    2,
    2,
    1,
    7,
    7,
    7,
    7,
    7,
    7,
    7,
    1,
    2,
    2,
    2,
    2,
    1,
    4,
    4,
    4,
    4,
    4,
    4,
    4,
    4,
    4,
    4,
    4,
    4,
    4,
    4,
    4,
    4,
    4,
    4,
    4,
    4,
    4,
    4,
    1,
    2,
    2,
    2,
    2,
    1,
    6,
    6,
    6,
    6,
    6,
    1,
    1,
    1,
    6,
    6,
    6,
    6,
    6,
    6,
    1,
    2,
    2,
    2,
    2,
    1,
    5,
    5,
    5,
    5,
    5,
    1,
    1,
    1,
    1,
    6,
    6,
    6,
    6,
    1,
    1,
    1,
    6,
    6,
    6,
    6,
    6,
    1,
    2,
    2,
    2,
    1,
    5,
    5,
    5,
    5,
    5,
    1,
    2,
    2,
    2,
    1,
    6,
    6,
    6,
    6,
    6,
    6,
    6,
    6,
    6,
    6,
    1,
    2,
    2,
    2,
    1,
    7,
    7,
    7,
    7,
    7,
    7,
    7,
    1,
    2,
    2,
    2,
    2,
    1,
    4,
    1,
    1,
    1,
    1,
    1,
    1,
    1,
    1,
    1,
    1,
    1,
    1,
    1,
    1,
    1,
    1,
    1,
    4,
    4,
    4,
    4,
    1,
    2,
    2,
    2,
    2,
    1,
    6,
    6,
    6,
    6,
    6,
    1,
    1,
    6,
    6,
    6,
    6,
    6,
    6,
    6,
    1,
    2,
    2,
    2,
    2,
    1,
    5,
    5,
    5,
    5,
    5,
    1,
    1,
    1,
    1,
    6,
    6,
    6,
    6,
    1,
    1,
    1,
    1,
    1,
    6,
    6,
    6,
    1,
    2,
    2,
    2,
    1,
    5,
    5,
    5,
    5,
    5,
    1,
    2,
    2,
    2,
    1,
    6,
    6,
    6,
    6,
    6,
    6,
    6,
    6,
    6,
    6,
    1,
    2,
    2,
    2,
    1,
    7,
    7,
    7,
    7,
    7,
    7,
    7,
    1,
    2,
    2,
    2,
    2,
    1,
    4,
    4,
    4,
    4,
    4,
    4,
    4,
    4,
    4,
    4,
    4,
    4,
    4,
    4,
    4,
    4,
    4,
    4,
    4,
    4,
    4,
    4,
    1,
    2,
    2,
    2,
    2,
    1,
    6,
    6,
    6,
    6,
    6,
    1,
    1,
    6,
    6,
    6,
    6,
    6,
    6,
    6,
    1,
    2,
    2,
    2,
    2,
    1,
    5,
    5,
    5,
    5,
    5,
    1,
    1,
    1,
    1,
    6,
    6,
    6,
    6,
    6,
    6,
    1,
    1,
    1,
    6,
    6,
    6,
    1,
    2,
    2,
    2,
    1,
    5,
    5,
    5,
    5,
    5,
    1,
    2,
    2,
    2,
    1,
    6,
    6,
    6,
    6,
    6,
    6,
    6,
    6,
    6,
    6,
    1,
    2,
    2,
    2,
    1,
    7,
    7,
    7,
    7,
    7,
    7,
    7,
    2,
    2,
    2,
    2,
    2,
    1,
    4,
    4,
    4,
    4,
    4,
    4,
    4,
    4,
    4,
    4,
    4,
    4,
    4,
    4,
    4,
    4,
    4,
    4,
    4,
    4,
    4,
    4,
    1,
    2,
    2,
    2,
    2,
    1,
    6,
    6,
    6,
    6,
    1,
    1,
    1,
    6,
    6,
    6,
    6,
    6,
    6,
    6,
    1,
    2,
    2,
    2,
    2,
    1,
    5,
    5,
    5,
    5,
    5,
    1,
    1,
    1,
    1,
    6,
    6,
    6,
    6,
    6,
    6,
    1,
    1,
    1,
    6,
    6,
    6,
    1,
    2,
    2,
    2,
    1,
    5,
    5,
    5,
    5,
    5,
    1,
    2,
    2,
    2,
    1,
    6,
    6,
    6,
    6,
    6,
    6,
    6,
    6,
    6,
    6,
    1,
    2,
    2,
    2,
    1,
    7,
    7,
    7,
    7,
    7,
    7,
    7,
    2,
    2,
    2,
    2,
    2,
    1,
    4,
    4,
    4,
    4,
    4,
    4,
    4,
    4,
    4,
    4,
    4,
    4,
    4,
    4,
    4,
    4,
    4,
    4,
    4,
    4,
    4,
    4,
    1,
    2,
    2,
    2,
    2,
    1,
    6,
    6,
    6,
    6,
    1,
    1,
    1,
    6,
    6,
    6,
    6,
    6,
    6,
    6,
    1,
    2,
    2,
    2,
    2,
    1,
    5,
    5,
    5,
    5,
    5,
    1,
    1,
    1,
    1,
    6,
    6,
    6,
    6,
    6,
    6,
    6,
    6,
    6,
    6,
    6,
    6,
    1,
    2,
    2,
    2,
    1,
    5,
    5,
    5,
    5,
    5,
    1,
    2,
    2,
    2,
    1,
    6,
    6,
    6,
    6,
    6,
    6,
    6,
    6,
    6,
    6,
    1,
    2,
    2,
    2,
    1,
    7,
    7,
    7,
    7,
    7,
    7,
    7,
    1,
    2,
    2,
    2,
    2,
    1,
    4,
    4,
    4,
    4,
    4,
    4,
    4,
    4,
    4,
    4,
    4,
    4,
    4,
    4,
    4,
    4,
    4,
    4,
    4,
    4,
    4,
    4,
    1,
    2,
    2,
    2,
    2,
    1,
    6,
    6,
    6,
    6,
    6,
    6,
    6,
    6,
    6,
    6,
    6,
    6,
    6,
    6,
    1,
    2,
    2,
    2,
    2,
    1,
    5,
    5,
    5,
    5,
    5,
    1,
    1,
    1,
    1,
    6,
    6,
    6,
    6,
    6,
    6,
    6,
    6,
    6,
    6,
    6,
    6,
    1,
    2,
    2,
    2,
    1,
    5,
    5,
    5,
    5,
    5,
    1,
    2,
    2,
    2,
    2,
    6,
    6,
    1,
    1,
    1,
    1,
    6,
    6,
    6,
    6,
    1,
    2,
    2,
    2,
    1,
    7,
    7,
    7,
    7,
    7,
    7,
    7,
    1,
    2,
    2,
    2,
    2,
    1,
    4,
    4,
    4,
    4,
    4,
    4,
    4,
    4,
    4,
    4,
    4,
    4,
    4,
    4,
    4,
    4,
    4,
    4,
    4,
    4,
    4,
    4,
    1,
    2,
    2,
    2,
    2,
    1,
    6,
    6,
    6,
    6,
    6,
    6,
    6,
    6,
    6,
    6,
    6,
    6,
    6,
    6,
    1,
    2,
    2,
    2,
    2,
    1,
    5,
    5,
    5,
    5,
    5,
    1,
    1,
    1,
    1,
    6,
    6,
    6,
    6,
    6,
    6,
    6,
    6,
    6,
    6,
    6,
    6,
    1,
    2,
    2,
    2,
    1,
    5,
    5,
    5,
    5,
    5,
    1,
    2,
    2,
    2,
    2,
    6,
    6,
    1,
    1,
    1,
    1,
    6,
    6,
    6,
    6,
    1,
    2,
    2,
    2,
    1,
    7,
    7,
    7,
    7,
    7,
    7,
    7,
    1,
    2,
    2,
    2,
    2,
    1,
    1,
    1,
    1,
    1,
    1,
    1,
    1,
    1,
    1,
    1,
    1,
    1,
    1,
    1,
    1,
    1,
    1,
    1,
    1,
    1,
    1,
    1,
    1,
    2,
    2,
    2,
    2,
    1,
    1,
    1,
    1,
    1,
    1,
    1,
    1,
    1,
    1,
    1,
    1,
    1,
    1,
    1,
    1,
    2,
    2,
    2,
    2,
    1,
    1,
    1,
    2,
    2,
    1,
    1,
    1,
    1,
    1,
    6,
    6,
    6,
    6,
    6,
    6,
    6,
    6,
    6,
    6,
    6,
    6,
    1,
    2,
    2,
    2,
    1,
    5,
    5,
    5,
    5,
    5,
    2,
    2,
    2,
    2,
    1,
    6,
    6,
    1,
    1,
    1,
    1,
    6,
    6,
    6,
    6,
    1,
    2,
    2,
    2,
    1,
    7,
    7,
    7,
    7,
    7,
    7,
    7,
    1,
    2,
    2,
    2,
    2,
    2,
    2,
    2,
    2,
    2,
    2,
    2,
    2,
    2,
    2,
    2,
    2,
    2,
    2,
    2,
    2,
    2,
    2,
    2,
    2,
    2,
    2,
    2,
    2,
    2,
    2,
    2,
    2,
    2,
    2,
    2,
    2,
    2,
    2,
    2,
    2,
    2,
    2,
    2,
    2,
    2,
    2,
    2,
    2,
    2,
    2,
    2,
    2,
    2,
    2,
    2,
    2,
    2,
    2,
    2,
    1,
    1,
    1,
    6,
    6,
    6,
    6,
    6,
    6,
    6,
    6,
    6,
    6,
    6,
    6,
    1,
    2,
    2,
    2,
    1,
    5,
    5,
    5,
    5,
    5,
    2,
    2,
    2,
    2,
    1,
    6,
    6,
    6,
    6,
    6,
    6,
    6,
    6,
    6,
    6,
    1,
    2,
    2,
    2,
    1,
    7,
    7,
    7,
    7,
    7,
    7,
    7,
    1,
    2,
    2,
    2,
    2,
    2,
    2,
    2,
    2,
    2,
    2,
    2,
    2,
    2,
    2,
    2,
    2,
    2,
    2,
    2,
    2,
    2,
    2,
    2,
    2,
    2,
    2,
    2,
    2,
    2,
    2,
    2,
    2,
    2,
    2,
    2,
    2,
    2,
    2,
    2,
    2,
    2,
    2,
    2,
    2,
    2,
    2,
    2,
    2,
    2,
    2,
    2,
    2,
    2,
    2,
    2,
    2,
    2,
    2,
    2,
    1,
    1,
    1,
    6,
    6,
    6,
    6,
    6,
    6,
    6,
    6,
    6,
    6,
    6,
    6,
    1,
    2,
    2,
    2,
    1,
    5,
    5,
    5,
    5,
    5,
    1,
    2,
    2,
    2,
    1,
    6,
    6,
    6,
    6,
    6,
    6,
    6,
    6,
    6,
    6,
    1,
    2,
    2,
    2,
    1,
    7,
    7,
    7,
    7,
    7,
    7,
    7,
    1,
    2,
    2,
    2,
    2,
    2,
    2,
    2,
    2,
    2,
    2,
    2,
    2,
    2,
    2,
    2,
    2,
    2,
    2,
    2,
    2,
    2,
    2,
    2,
    2,
    2,
    2,
    2,
    2,
    2,
    2,
    2,
    2,
    2,
    2,
    2,
    2,
    2,
    2,
    2,
    2,
    2,
    2,
    2,
    2,
    2,
    2,
    2,
    2,
    2,
    2,
    2,
    2,
    2,
    2,
    2,
    2,
    2,
    2,
    2,
    1,
    1,
    1,
    1,
    1,
    1,
    1,
    1,
    1,
    1,
    1,
    1,
    2,
    2,
    1,
    1,
    2,
    2,
    2,
    1,
    1,
    1,
    1,
    1,
    1,
    1,
    2,
    2,
    2,
    1,
    1,
    1,
    1,
    1,
    1,
    1,
    2,
    2,
    1,
    1,
    1,
    2,
    2,
    2,
    1,
    1,
    1,
    1,
    1,
    1,
    1,
    1,
    1,
    2,
    2,
    2,
    2,
    2,
    2,
    2,
    2,
    2,
    2,
    2,
    2,
    2,
    2,
    2,
    2,
    2,
    2,
    2,
    2,
    2,
    2,
    2,
    2,
    2,
    2,
    2,
    2,
    2,
    2,
    2,
    2,
    2,
    2,
    2,
    2,
    2,
    2,
    2,
    2,
    2,
    2,
    2,
    2,
    2,
    2,
    2,
    2,
    2,
    2,
    2,
    2,
    2,
    2,
    2,
    2,
    2,
    2,
    2,
    1,
    1,
    2,
    2,
    2,
    2,
    2,
    2,
    2,
    2,
    2,
    2,
    2,
    2,
    2,
    2,
    2,
    2,
    2,
    2,
    2,
    2,
    2,
    2,
    2,
    2,
    2,
    2,
    2,
    2,
    2,
    2,
    2,
    2,
    2,
    2,
    2,
    2,
    2,
    2,
    2,
    2,
    2,
    2,
    2,
    2,
    2,
    2,
    2,
    2,
    2,
    2,
    2,
    2,
    2,
    2,
    2,
    1,
    1,
    1,
    1,
    1,
    1,
    1,
    1,
    1,
    1,
    2,
    2,
    1,
    1,
    1,
    1,
    1,
    1,
    1,
    1,
    1,
    1,
    1,
    2,
    2,
    2,
    1,
    1,
    1,
    1,
    1,
    1,
    1,
    1,
    2,
    2,
    1,
    1,
    1,
    1,
    1,
    1,
    1,
    1,
    1,
    1,
    1,
    1,
    1,
    1,
    1,
    1,
    1,
    1,
    1,
    1,
    1,
    2,
    2,
    2,
    2,
    2,
    2,
    2,
    2,
    2,
    2,
    2,
    2,
    2,
    2,
    2,
    2,
    2,
    2,
    2,
    2,
    2,
    2,
    2,
    2,
    2,
    2,
    2,
    2,
    2,
    2,
    2,
    2,
    2,
    2,
    2,
    2,
    2,
    2,
    2,
    2,
    2,
    2,
    2,
    2,
    2,
    2,
    2,
    2,
    2,
    2,
    2,
    2,
    2,
    2,
    2,
    1,
    3,
    3,
    3,
    3,
    3,
    3,
    3,
    3,
    3,
    3,
    3,
    3,
    3,
    3,
    3,
    3,
    3,
    3,
    3,
    3,
    3,
    1,
    2,
    2,
    2,
    1,
    4,
    4,
    4,
    4,
    4,
    4,
    4,
    4,
    4,
    4,
    4,
    4,
    4,
    4,
    4,
    4,
    4,
    4,
    4,
    4,
    4,
    4,
    4,
    4,
    4,
    4,
    4,
    1,
    1,
    1,
    2,
    2,
    2,
    2,
    2,
    2,
    2,
    2,
    2,
    2,
    2,
    2,
    2,
    2,
    2,
    2,
    2,
    2,
    2,
    2,
    2,
    2,
    2,
    2,
    2,
    2,
    2,
    2,
    2,
    2,
    2,
    2,
    2,
    2,
    2,
    2,
    2,
    2,
    2,
    2,
    2,
    2,
    2,
    2,
    2,
    2,
    2,
    2,
    2,
    2,
    2,
    2,
    2,
    2,
    2,
    1,
    3,
    3,
    3,
    3,
    3,
    3,
    3,
    3,
    3,
    3,
    3,
    3,
    3,
    3,
    3,
    3,
    3,
    3,
    3,
    3,
    3,
    1,
    2,
    2,
    2,
    2,
    4,
    4,
    4,
    4,
    4,
    4,
    4,
    4,
    4,
    4,
    4,
    4,
    4,
    4,
    4,
    4,
    4,
    4,
    4,
    4,
    4,
    4,
    4,
    4,
    4,
    4,
    4,
    1,
    1,
    1,
    1,
    1,
    1,
    1,
    1,
    1,
    1,
    1,
    1,
    1,
    1,
    1,
    1,
    2,
    2,
    1,
    1,
    1,
    1,
    1,
    1,
    1,
    1,
    1,
    1,
    1,
    2,
    2,
    2,
    1,
    1,
    1,
    2,
    2,
    1,
    1,
    2,
    2,
    2,
    2,
    1,
    1,
    1,
    1,
    1,
    1,
    1,
    1,
    1,
    1,
    1,
    2,
    2,
    2,
    2,
    1,
    3,
    3,
    1,
    3,
    3,
    1,
    3,
    3,
    1,
    3,
    3,
    1,
    3,
    3,
    1,
    3,
    3,
    1,
    3,
    3,
    3,
    1,
    2,
    2,
    2,
    2,
    4,
    4,
    4,
    4,
    4,
    4,
    4,
    4,
    4,
    4,
    4,
    4,
    4,
    4,
    4,
    4,
    4,
    4,
    4,
    4,
    4,
    4,
    4,
    4,
    4,
    4,
    4,
    1,
    1,
    1,
    1,
    4,
    4,
    4,
    4,
    4,
    4,
    4,
    4,
    4,
    4,
    4,
    4,
    4,
    4,
    4,
    4,
    4,
    4,
    4,
    4,
    4,
    4,
    4,
    4,
    1,
    2,
    2,
    2,
    1,
    5,
    5,
    5,
    5,
    5,
    1,
    2,
    2,
    2,
    2,
    1,
    5,
    5,
    5,
    5,
    5,
    5,
    5,
    5,
    5,
    1,
    2,
    2,
    2,
    2,
    1,
    3,
    3,
    1,
    3,
    3,
    1,
    3,
    3,
    1,
    3,
    3,
    1,
    3,
    3,
    1,
    3,
    3,
    1,
    3,
    3,
    3,
    1,
    2,
    2,
    2,
    1,
    4,
    4,
    4,
    4,
    1,
    1,
    1,
    1,
    1,
    1,
    1,
    1,
    1,
    1,
    1,
    1,
    1,
    1,
    1,
    1,
    1,
    1,
    1,
    1,
    1,
    1,
    4,
    1,
    1,
    1,
    1,
    4,
    4,
    4,
    4,
    4,
    4,
    4,
    4,
    4,
    4,
    4,
    4,
    4,
    4,
    4,
    4,
    4,
    4,
    4,
    4,
    4,
    4,
    4,
    4,
    1,
    2,
    2,
    2,
    1,
    5,
    5,
    5,
    5,
    5,
    1,
    2,
    2,
    2,
    2,
    1,
    5,
    5,
    5,
    5,
    5,
    5,
    5,
    5,
    5,
    1,
    2,
    2,
    2,
    2,
    1,
    3,
    3,
    1,
    3,
    3,
    1,
    3,
    3,
    1,
    3,
    3,
    1,
    3,
    3,
    1,
    3,
    3,
    1,
    3,
    3,
    3,
    1,
    2,
    2,
    2,
    1,
    4,
    4,
    4,
    4,
    4,
    4,
    4,
    4,
    4,
    4,
    4,
    4,
    4,
    4,
    4,
    4,
    4,
    4,
    4,
    4,
    4,
    4,
    4,
    4,
    4,
    4,
    4,
    1,
    1,
    1,
    1,
    4,
    4,
    4,
    4,
    4,
    4,
    4,
    4,
    4,
    4,
    4,
    4,
    4,
    4,
    4,
    4,
    4,
    4,
    4,
    4,
    4,
    4,
    4,
    4,
    1,
    2,
    2,
    2,
    1,
    5,
    5,
    5,
    5,
    5,
    1,
    2,
    2,
    2,
    2,
    1,
    5,
    5,
    5,
    5,
    5,
    5,
    5,
    5,
    5,
    1,
    2,
    2,
    2,
    2,
    1,
    3,
    3,
    1,
    3,
    3,
    1,
    3,
    3,
    1,
    3,
    3,
    1,
    3,
    3,
    1,
    3,
    3,
    1,
    3,
    3,
    3,
    1,
    2,
    2,
    2,
    1,
    4,
    4,
    4,
    4,
    4,
    4,
    4,
    4,
    4,
    4,
    4,
    4,
    4,
    4,
    4,
    4,
    4,
    4,
    4,
    4,
    4,
    4,
    4,
    4,
    4,
    4,
    4,
    1,
    1,
    1,
    1,
    4,
    4,
    4,
    4,
    1,
    1,
    1,
    1,
    1,
    1,
    1,
    1,
    1,
    1,
    1,
    1,
    1,
    1,
    1,
    1,
    1,
    1,
    1,
    4,
    1,
    2,
    2,
    2,
    1,
    5,
    5,
    5,
    5,
    5,
    1,
    2,
    2,
    2,
    2,
    1,
    5,
    5,
    5,
    5,
    5,
    5,
    5,
    5,
    5,
    1,
    2,
    2,
    2,
    2,
    1,
    3,
    3,
    1,
    3,
    3,
    1,
    3,
    3,
    1,
    3,
    3,
    1,
    3,
    3,
    1,
    3,
    3,
    1,
    3,
    3,
    3,
    1,
    2,
    2,
    2,
    1,
    4,
    4,
    4,
    4,
    4,
    4,
    4,
    4,
    4,
    4,
    4,
    4,
    4,
    4,
    4,
    4,
    4,
    4,
    4,
    4,
    4,
    4,
    4,
    4,
    4,
    4,
    4,
    1,
    1,
    1,
    1,
    4,
    4,
    4,
    4,
    4,
    4,
    4,
    4,
    4,
    4,
    4,
    4,
    4,
    4,
    4,
    4,
    4,
    4,
    4,
    4,
    4,
    4,
    4,
    4,
    1,
    2,
    2,
    2,
    1,
    5,
    5,
    5,
    5,
    5,
    1,
    2,
    2,
    2,
    2,
    1,
    5,
    5,
    5,
    5,
    5,
    5,
    5,
    5,
    5,
    1,
    2,
    2,
    2,
    2,
    1,
    3,
    3,
    1,
    3,
    3,
    1,
    3,
    3,
    1,
    3,
    3,
    1,
    3,
    3,
    1,
    3,
    3,
    1,
    3,
    3,
    3,
    1,
    2,
    2,
    2,
    1,
    4,
    1,
    1,
    1,
    1,
    1,
    1,
    1,
    1,
    1,
    1,
    1,
    1,
    1,
    1,
    1,
    1,
    1,
    1,
    1,
    1,
    1,
    1,
    4,
    4,
    4,
    4,
    1,
    1,
    1,
    1,
    4,
    4,
    4,
    4,
    4,
    4,
    4,
    4,
    4,
    4,
    4,
    4,
    4,
    4,
    4,
    4,
    4,
    4,
    4,
    4,
    4,
    4,
    4,
    4,
    1,
    2,
    2,
    2,
    1,
    5,
    5,
    5,
    5,
    5,
    1,
    2,
    2,
    2,
    2,
    1,
    5,
    5,
    5,
    5,
    5,
    5,
    5,
    5,
    5,
    1,
    2,
    2,
    2,
    2,
    1,
    3,
    3,
    1,
    3,
    3,
    1,
    3,
    3,
    1,
    3,
    3,
    1,
    3,
    3,
    1,
    3,
    3,
    1,
    3,
    3,
    3,
    1,
    2,
    2,
    2,
    1,
    4,
    4,
    4,
    4,
    4,
    4,
    4,
    4,
    4,
    4,
    4,
    4,
    4,
    4,
    4,
    4,
    4,
    4,
    4,
    4,
    4,
    4,
    4,
    4,
    4,
    4,
    4,
    1,
    1,
    1,
    1,
    4,
    4,
    4,
    4,
    4,
    4,
    4,
    4,
    4,
    4,
    4,
    4,
    4,
    4,
    4,
    4,
    4,
    4,
    4,
    4,
    4,
    4,
    4,
    4,
    1,
    2,
    2,
    2,
    1,
    5,
    5,
    5,
    5,
    5,
    1,
    2,
    2,
    2,
    2,
    2,
    5,
    5,
    5,
    5,
    5,
    5,
    5,
    5,
    5,
    1,
    2,
    2,
    2,
    2,
    1,
    3,
    3,
    1,
    3,
    3,
    1,
    3,
    3,
    1,
    3,
    3,
    1,
    3,
    3,
    1,
    3,
    3,
    1,
    3,
    3,
    3,
    1,
    2,
    2,
    2,
    1,
    4,
    4,
    4,
    4,
    4,
    4,
    4,
    4,
    4,
    4,
    4,
    4,
    4,
    4,
    4,
    4,
    4,
    4,
    4,
    4,
    4,
    4,
    4,
    4,
    4,
    4,
    4,
    1,
    1,
    1,
    1,
    4,
    1,
    1,
    1,
    1,
    1,
    1,
    1,
    1,
    1,
    1,
    1,
    1,
    1,
    1,
    1,
    1,
    1,
    1,
    1,
    4,
    4,
    4,
    4,
    1,
    2,
    2,
    2,
    1,
    5,
    5,
    5,
    5,
    5,
    1,
    2,
    2,
    2,
    2,
    2,
    5,
    5,
    5,
    5,
    5,
    5,
    5,
    5,
    5,
    1,
    2,
    2,
    2,
    2,
    1,
    3,
    3,
    1,
    3,
    3,
    1,
    3,
    3,
    1,
    3,
    3,
    1,
    3,
    3,
    1,
    3,
    3,
    1,
    3,
    3,
    3,
    1,
    2,
    2,
    2,
    1,
    4,
    4,
    4,
    4,
    4,
    4,
    4,
    4,
    4,
    4,
    4,
    4,
    4,
    4,
    4,
    4,
    4,
    4,
    4,
    4,
    4,
    4,
    4,
    4,
    4,
    4,
    4,
    1,
    1,
    1,
    1,
    4,
    4,
    4,
    4,
    4,
    4,
    4,
    4,
    4,
    4,
    4,
    4,
    4,
    4,
    4,
    4,
    4,
    4,
    4,
    4,
    4,
    4,
    4,
    4,
    1,
    2,
    2,
    2,
    1,
    5,
    5,
    5,
    5,
    5,
    1,
    2,
    2,
    2,
    2,
    1,
    5,
    5,
    5,
    5,
    5,
    5,
    5,
    5,
    5,
    1,
    2,
    2,
    2,
    2,
    1,
    3,
    3,
    1,
    3,
    3,
    1,
    3,
    3,
    1,
    3,
    3,
    1,
    3,
    3,
    1,
    3,
    3,
    1,
    3,
    3,
    3,
    1,
    2,
    2,
    2,
    1,
    4,
    4,
    4,
    4,
    1,
    1,
    1,
    1,
    1,
    1,
    1,
    1,
    1,
    1,
    1,
    1,
    1,
    1,
    1,
    1,
    1,
    1,
    1,
    1,
    1,
    1,
    4,
    1,
    1,
    1,
    1,
    4,
    4,
    4,
    4,
    4,
    4,
    4,
    4,
    4,
    4,
    4,
    4,
    4,
    4,
    4,
    4,
    4,
    4,
    4,
    4,
    4,
    4,
    4,
    4,
    1,
    2,
    2,
    2,
    1,
    5,
    5,
    5,
    5,
    5,
    1,
    2,
    2,
    2,
    2,
    1,
    5,
    5,
    5,
    5,
    5,
    5,
    5,
    5,
    5,
    1,
    2,
    2,
    2,
    2,
    1,
    3,
    3,
    1,
    3,
    3,
    1,
    3,
    3,
    1,
    3,
    3,
    1,
    3,
    3,
    1,
    3,
    3,
    1,
    3,
    3,
    3,
    1,
    2,
    2,
    2,
    1,
    4,
    4,
    4,
    4,
    4,
    4,
    4,
    4,
    4,
    4,
    4,
    4,
    4,
    4,
    4,
    4,
    4,
    4,
    4,
    4,
    4,
    4,
    4,
    4,
    4,
    4,
    4,
    1,
    1,
    1,
    1,
    4,
    4,
    4,
    4,
    4,
    4,
    4,
    4,
    4,
    4,
    4,
    4,
    4,
    4,
    4,
    4,
    4,
    4,
    4,
    4,
    4,
    4,
    4,
    4,
    2,
    2,
    2,
    2,
    1,
    5,
    5,
    5,
    5,
    5,
    1,
    2,
    2,
    2,
    2,
    1,
    5,
    5,
    5,
    5,
    5,
    5,
    5,
    5,
    5,
    1,
    2,
    2,
    2,
    2,
    1,
    3,
    3,
    1,
    3,
    3,
    1,
    3,
    3,
    1,
    3,
    3,
    1,
    3,
    3,
    1,
    3,
    3,
    1,
    3,
    3,
    3,
    1,
    2,
    2,
    2,
    1,
    4,
    4,
    4,
    4,
    4,
    4,
    4,
    4,
    4,
    4,
    4,
    4,
    4,
    4,
    4,
    4,
    4,
    4,
    4,
    4,
    4,
    4,
    4,
    4,
    4,
    4,
    4,
    1,
    1,
    1,
    1,
    4,
    4,
    4,
    4,
    1,
    1,
    1,
    1,
    1,
    1,
    1,
    1,
    1,
    1,
    1,
    1,
    1,
    1,
    1,
    1,
    1,
    1,
    1,
    4,
    2,
    2,
    2,
    2,
    1,
    5,
    5,
    5,
    5,
    5,
    1,
    2,
    2,
    2,
    2,
    1,
    5,
    5,
    5,
    5,
    5,
    5,
    5,
    5,
    5,
    1,
    2,
    2,
    2,
    2,
    1,
    3,
    3,
    1,
    3,
    3,
    1,
    3,
    3,
    1,
    3,
    3,
    1,
    3,
    3,
    1,
    3,
    3,
    1,
    3,
    3,
    3,
    1,
    2,
    2,
    2,
    1,
    4,
    4,
    4,
    4,
    4,
    4,
    4,
    4,
    4,
    4,
    4,
    4,
    4,
    4,
    4,
    4,
    4,
    4,
    4,
    4,
    4,
    4,
    4,
    4,
    4,
    4,
    4,
    1,
    1,
    1,
    1,
    4,
    4,
    4,
    4,
    4,
    4,
    4,
    4,
    4,
    4,
    4,
    4,
    4,
    4,
    4,
    4,
    4,
    4,
    4,
    4,
    4,
    4,
    4,
    4,
    1,
    2,
    2,
    2,
    1,
    1,
    1,
    1,
    1,
    1,
    1,
    2,
    2,
    2,
    2,
    1,
    1,
    1,
    1,
    1,
    1,
    1,
    1,
    1,
    1,
    1,
    2,
    2,
    2,
    2,
    1,
    3,
    3,
    1,
    3,
    3,
    1,
    3,
    3,
    1,
    3,
    3,
    1,
    3,
    3,
    1,
    3,
    3,
    1,
    3,
    3,
    3,
    1,
    2,
    2,
    2,
    1,
    4,
    1,
    1,
    1,
    1,
    1,
    1,
    1,
    1,
    1,
    1,
    1,
    1,
    1,
    1,
    1,
    1,
    1,
    1,
    1,
    1,
    1,
    1,
    4,
    4,
    4,
    4,
    1,
    1,
    1,
    1,
    4,
    4,
    4,
    4,
    4,
    4,
    4,
    4,
    4,
    4,
    4,
    4,
    4,
    4,
    4,
    4,
    4,
    4,
    4,
    4,
    4,
    4,
    4,
    4,
    1,
    2,
    2,
    2,
    2,
    2,
    2,
    2,
    2,
    2,
    2,
    2,
    2,
    2,
    2,
    2,
    2,
    2,
    2,
    2,
    2,
    2,
    2,
    2,
    2,
    2,
    2,
    2,
    2,
    2,
    1,
    3,
    3,
    1,
    3,
    3,
    1,
    3,
    3,
    1,
    3,
    3,
    1,
    3,
    3,
    1,
    3,
    3,
    1,
    3,
    3,
    3,
    1,
    2,
    2,
    2,
    1,
    4,
    4,
    4,
    4,
    4,
    4,
    4,
    4,
    4,
    4,
    4,
    4,
    4,
    4,
    4,
    4,
    4,
    4,
    4,
    4,
    4,
    4,
    4,
    4,
    4,
    4,
    4,
    1,
    1,
    1,
    1,
    4,
    4,
    4,
    4,
    4,
    4,
    4,
    4,
    4,
    4,
    4,
    4,
    4,
    4,
    4,
    4,
    4,
    4,
    4,
    4,
    4,
    4,
    4,
    4,
    1,
    2,
    2,
    2,
    2,
    2,
    2,
    2,
    2,
    2,
    2,
    2,
    2,
    2,
    2,
    2,
    2,
    2,
    2,
    2,
    2,
    2,
    2,
    2,
    2,
    2,
    2,
    2,
    2,
    2,
    1,
    3,
    3,
    1,
    3,
    3,
    1,
    3,
    3,
    1,
    3,
    3,
    1,
    3,
    3,
    1,
    3,
    3,
    1,
    3,
    3,
    3,
    2,
    2,
    2,
    2,
    1,
    4,
    4,
    4,
    4,
    4,
    4,
    4,
    4,
    4,
    4,
    4,
    4,
    4,
    4,
    4,
    4,
    4,
    4,
    4,
    4,
    4,
    4,
    4,
    4,
    4,
    4,
    4,
    1,
    1,
    1,
    1,
    4,
    1,
    1,
    1,
    1,
    1,
    1,
    1,
    1,
    1,
    1,
    1,
    1,
    1,
    1,
    1,
    1,
    1,
    1,
    1,
    4,
    4,
    4,
    4,
    1,
    2,
    2,
    2,
    2,
    2,
    2,
    2,
    2,
    2,
    2,
    2,
    2,
    2,
    2,
    2,
    2,
    2,
    2,
    2,
    2,
    2,
    2,
    2,
    2,
    2,
    2,
    2,
    2,
    2,
    1,
    3,
    3,
    1,
    3,
    3,
    1,
    3,
    3,
    1,
    3,
    3,
    1,
    3,
    3,
    1,
    3,
    3,
    1,
    3,
    3,
    3,
    2,
    2,
    2,
    2,
    1,
    4,
    4,
    4,
    4,
    4,
    4,
    4,
    4,
    4,
    4,
    4,
    4,
    4,
    4,
    4,
    4,
    4,
    4,
    4,
    4,
    4,
    4,
    4,
    4,
    4,
    4,
    4,
    1,
    1,
    1,
    1,
    4,
    4,
    4,
    4,
    4,
    4,
    4,
    4,
    4,
    4,
    4,
    4,
    4,
    4,
    4,
    4,
    4,
    4,
    4,
    4,
    4,
    4,
    4,
    4,
    1,
    2,
    2,
    2,
    2,
    2,
    2,
    2,
    2,
    2,
    2,
    2,
    2,
    2,
    2,
    2,
    2,
    2,
    2,
    2,
    2,
    2,
    2,
    2,
    2,
    2,
    2,
    2,
    2,
    2,
    1,
    3,
    3,
    1,
    3,
    3,
    1,
    3,
    3,
    1,
    3,
    3,
    1,
    3,
    3,
    1,
    3,
    3,
    1,
    3,
    3,
    3,
    1,
    2,
    2,
    2,
    1,
    4,
    4,
    4,
    4,
    1,
    1,
    1,
    1,
    1,
    1,
    1,
    1,
    1,
    1,
    1,
    1,
    1,
    1,
    1,
    1,
    1,
    1,
    1,
    1,
    1,
    1,
    4,
    1,
    1,
    1,
    1,
    4,
    4,
    4,
    4,
    4,
    4,
    4,
    4,
    4,
    4,
    4,
    4,
    4,
    4,
    4,
    4,
    4,
    4,
    4,
    4,
    4,
    4,
    4,
    4,
    1,
    2,
    2,
    2,
    1,
    1,
    1,
    1,
    1,
    1,
    1,
    1,
    2,
    2,
    2,
    2,
    1,
    1,
    1,
    1,
    2,
    2,
    1,
    1,
    1,
    1,
    2,
    2,
    2,
    2,
    1,
    3,
    3,
    1,
    3,
    3,
    1,
    3,
    3,
    1,
    3,
    3,
    1,
    3,
    3,
    1,
    3,
    3,
    1,
    3,
    3,
    3,
    1,
    2,
    2,
    2,
    1,
    4,
    4,
    4,
    4,
    4,
    4,
    4,
    4,
    4,
    4,
    4,
    4,
    4,
    4,
    4,
    4,
    4,
    4,
    4,
    4,
    4,
    4,
    4,
    4,
    4,
    4,
    4,
    1,
    1,
    1,
    1,
    4,
    4,
    4,
    4,
    4,
    4,
    4,
    4,
    4,
    4,
    4,
    4,
    4,
    4,
    4,
    4,
    4,
    4,
    4,
    4,
    4,
    4,
    4,
    4,
    1,
    2,
    2,
    2,
    1,
    5,
    5,
    5,
    5,
    5,
    5,
    1,
    2,
    2,
    2,
    2,
    1,
    5,
    5,
    5,
    5,
    5,
    5,
    5,
    5,
    1,
    2,
    2,
    2,
    2,
    1,
    3,
    3,
    1,
    3,
    3,
    1,
    3,
    3,
    1,
    3,
    3,
    1,
    3,
    3,
    1,
    3,
    3,
    1,
    3,
    3,
    3,
    1,
    2,
    2,
    2,
    1,
    4,
    4,
    4,
    4,
    4,
    4,
    4,
    4,
    4,
    4,
    4,
    4,
    4,
    4,
    4,
    4,
    4,
    4,
    4,
    4,
    4,
    4,
    4,
    4,
    4,
    4,
    4,
    1,
    1,
    1,
    1,
    4,
    4,
    4,
    4,
    4,
    4,
    4,
    4,
    4,
    4,
    4,
    4,
    4,
    4,
    4,
    4,
    4,
    4,
    4,
    4,
    4,
    4,
    4,
    4,
    1,
    2,
    2,
    2,
    1,
    5,
    5,
    5,
    5,
    5,
    5,
    1,
    2,
    2,
    2,
    2,
    1,
    5,
    5,
    5,
    5,
    5,
    5,
    5,
    5,
    1,
    2,
    2,
    2,
    2,
    1,
    3,
    3,
    1,
    3,
    3,
    1,
    3,
    3,
    1,
    3,
    3,
    1,
    3,
    3,
    1,
    3,
    3,
    1,
    3,
    3,
    3,
    1,
    2,
    2,
    2,
    1,
    4,
    4,
    4,
    4,
    4,
    4,
    4,
    4,
    4,
    4,
    4,
    4,
    4,
    4,
    4,
    4,
    4,
    4,
    4,
    4,
    4,
    4,
    4,
    4,
    4,
    4,
    4,
    1,
    1,
    1,
    1,
    4,
    4,
    4,
    4,
    4,
    4,
    4,
    4,
    4,
    4,
    4,
    4,
    4,
    4,
    4,
    4,
    4,
    4,
    4,
    4,
    4,
    4,
    4,
    4,
    1,
    2,
    2,
    2,
    1,
    5,
    5,
    5,
    5,
    5,
    5,
    2,
    2,
    2,
    2,
    2,
    1,
    5,
    5,
    5,
    5,
    5,
    5,
    5,
    5,
    1,
    2,
    2,
    2,
    2,
    1,
    3,
    3,
    3,
    3,
    3,
    3,
    3,
    3,
    3,
    3,
    3,
    3,
    3,
    3,
    3,
    3,
    3,
    3,
    3,
    3,
    3,
    1,
    2,
    2,
    2,
    1,
    4,
    4,
    4,
    4,
    4,
    4,
    4,
    4,
    4,
    4,
    4,
    4,
    4,
    4,
    4,
    4,
    4,
    4,
    4,
    4,
    4,
    4,
    4,
    4,
    4,
    4,
    4,
    1,
    1,
    1,
    1,
    4,
    4,
    4,
    4,
    4,
    4,
    4,
    4,
    4,
    4,
    4,
    4,
    4,
    4,
    4,
    4,
    4,
    4,
    4,
    4,
    4,
    4,
    4,
    4,
    1,
    2,
    2,
    2,
    1,
    5,
    5,
    5,
    5,
    5,
    5,
    2,
    2,
    2,
    2,
    2,
    1,
    5,
    5,
    5,
    5,
    5,
    5,
    5,
    5,
    1,
    2,
    2,
    2,
    2,
    1,
    3,
    3,
    3,
    3,
    3,
    3,
    3,
    3,
    3,
    3,
    3,
    3,
    3,
    3,
    3,
    3,
    3,
    3,
    3,
    3,
    3,
    1,
    2,
    2,
    2,
    1,
    4,
    4,
    4,
    4,
    4,
    4,
    4,
    4,
    4,
    4,
    4,
    4,
    4,
    4,
    4,
    4,
    4,
    4,
    4,
    4,
    4,
    4,
    4,
    4,
    4,
    4,
    4,
    1,
    1,
    1,
    1,
    1,
    1,
    1,
    1,
    1,
    1,
    1,
    1,
    1,
    1,
    1,
    1,
    1,
    1,
    1,
    1,
    1,
    1,
    1,
    1,
    1,
    1,
    1,
    1,
    1,
    2,
    2,
    2,
    1,
    1,
    1,
    1,
    1,
    1,
    1,
    1,
    2,
    2,
    2,
    2,
    1,
    1,
    1,
    1,
    1,
    1,
    1,
    1,
    1,
    1,
    2,
    2,
    2,
    2,
    1,
    1,
    1,
    1,
    1,
    1,
    1,
    1,
    1,
    1,
    1,
    1,
    1,
    1,
    1,
    1,
    1,
    1,
    1,
    1,
    1,
    1,
    1,
    2,
    2,
    2,
    1,
    1,
    1,
    1,
    1,
    1,
    1,
    1,
    1,
    1,
    1,
    1,
    1,
    1,
    1,
    1,
    1,
    1,
    1,
    1,
    1,
    1,
    1,
    1,
    1,
    1,
    1,
    1,
    1,
    1,
    1,
    1,
    1,
    1,
    1,
    1,
    1,
    1,
    1,
    1,
    1,
    1,
    1,
    1,
    1,
    1,
    1,
    1,
    1,
    1,
    1,
    1,
    1,
    1,
    1,
    1,
    1,
    1,
    1,
    1,
    1,
    1,
    1,
    1,
    1,
    1,
    1,
    1,
    1,
    1,
    1,
    1,
    1,
    1,
    1,
    1,
    1,
    1,
    1,
    1,
    1,
    1,
    8,
    8,
    8,
    1,
    1,
    1,
    1,
    1,
    1,
    1,
    1,
    1,
    1,
    1,
    1,
    1,
    1,
    1,
    1,
    1,
    1,
    1,
    1,
    1,
    1,
    1,
    1,
    1,
    1,
    1,
    1,
    1,
    1,
    1,
    1,
    1,
    1,
    1,
    1,
    1,
    1,
    1,
    1,
    1,
    1,
    1,
    1,
    1,
    1,
    1,
    1,
    1,
    1,
    1,
    1,
    1,
    1,
    1,
    1,
    1
   ]
  },
  {
   "id": 2,
   "name": "puntos",
   "type": "objectgroup",
   "visible": true,
   "opacity": 1,
   "x": 0,
   "y": 0,
   "draworder": "topdown",
   "objects": [
    {
     "id": 1,
     "name": "salida",
     "type": "salida",
     "visible": true,
     "x": 2592,
     "y": 0,
     "width": 32,
     "height": 32,
     "rotation": 0
    },
    {
     "id": 2,
     "name": "salida",
     "type": "salida",
     "visible": true,
     "x": 1696,
     "y": 2272,
     "width": 32,
     "height": 32,
     "rotation": 0
    },
    {
     "id": 3,
     "name": "salida",
     "type": "salida",
     "visible": true,
     "x": 0,
     "y": 800,
     "width": 32,
     "height": 32,
     "rotation": 0
    },
    {
     "id": 4,
     "name": "salida",
     "type": "salida",
     "visible": true,
     "x": 3552,
     "y": 768,
     "width": 32,
     "height": 32,
     "rotation": 0
    },
    {
     "id": 5,
     "name": "inicio",
     "type": "inicio",
     "visible": true,
     "x": 1504,
     "y": 1024,
     "width": 32,
     "height": 32,
     "rotation": 0
    }
   ]
  }
 ]
}